!!!COM: Beethoven
!!!OTL: Acht Variationen uber "Une fievre brulante" aus "Richard Coeur de Lion" von A.E.M. Gretry
!!!Variation: Variation 4 b
**function	**harm	**kern	**kern
*	*	*clefF4	*clefG2
*	*	*k[b-e-a-]	*k[b-e-a-]
*M3/4	*M3/4	*M3/4	*M3/4
*c:	*c:	*c:	*c:
4T	4I/III	4r	([4b-
=137	=137	=137	=137
2.T	2.I/III	2.E- 2.G 2.B-	8b-L]
.	.	.	8ggJ
.	.	.	8ffL
.	.	.	8ee-J
.	.	.	8ddL
.	.	.	8ccJ)
=138	=138	=138	=138
2.T	2.ii7d/III	2.E- 2.F 2.c	(4b-
.	.	.	4a-)
.	.	.	([4a-
=139	=139	=139	=139
2.T	2.V7b/III	[2.D [2.F [2.A- [2.B-	8a-L]
.	.	.	8aa-J
.	.	.	8ffL
.	.	.	8ddJ
.	.	.	8b-L
.	.	.	8a-J
=140	=140	=140	=140
2.T	2.V7b/III	4D] 4F] 4A-] 4B-]	8fL
.	.	.	8dJ
.	.	4r	8B-L
.	.	.	8AJ
.	.	4r	8A-L
.	.	.	8B-J
=141	=141	=141	=141
2.T	2.Ib/III	2.GG	8GL
.	.	.	8e-J
.	.	.	8B-L
.	.	.	8e-J
.	.	.	8BL
.	.	.	8e-J
=142	=142	=142	=142
2P	2IV/III	2.AA-	8cL
.	.	.	8ccJ
.	.	.	8eL
.	.	.	8gJ
4P	4iib/III	.	8fL
.	.	.	8a-J
=143	=143	=143	=143
2.D	2.V7/III	2.BB-	8dL
.	.	.	8fJ
.	.	.	8A-L
.	.	.	8dJ
.	.	.	8A-L
.	.	.	8B-J
=144	=144	=144	=144
2T	2I/III	4EE-	4G) 4e-
.	.	4r	4r
*-	*-	*-	*-
